packages/ffe-icons/icons/filled/md/dishwasher_gen.svg

<svg xmlns="http://www.w3.org/2000/svg" height="24" viewBox="0 -960 960 960" width="24"><path d="M320-684.616q14.692 0 25.038-10.346T355.384-720q0-14.692-10.346-25.038T320-755.384q-14.692 0-25.038 10.346T284.616-720q0 14.692 10.346 25.038T320-684.616Zm120 0q14.692 0 25.038-10.346T475.384-720q0-14.692-10.346-25.038T440-755.384q-14.692 0-25.038 10.346T404.616-720q0 14.692 10.346 25.038T440-684.616Zm39.978 434.615q58.791 0 100.406-40.103 41.615-40.103 41.615-97.926 0-27.047-9.23-52.624-9.231-25.576-28.122-44.467l-79.34-79.34Q494.461-575.307 480-575.307q-14.461 0-25.307 10.846l-75.769 75.769q-20.389 20.507-31.156 46.606-10.767 26.1-9.767 54.063 2 57.792 43.06 97.907 41.06 40.115 98.917 40.115Zm-.023-56.383q-34.186 0-58.071-23.692-23.885-23.693-23.885-57.924 0-16.511 5.693-31.371 5.692-14.86 17.846-27.014L480-504.847l59.385 59.385q11.385 11.385 17 26.539 5.616 15.154 5.616 30.923 0 34.231-23.93 57.924-23.93 23.692-58.116 23.692ZM252.309-100.001q-29.827 0-51.067-21.241-21.241-21.24-21.241-51.067v-615.382q0-29.827 21.241-51.067 21.24-21.241 51.067-21.241h455.382q29.827 0 51.067 21.241 21.241 21.24 21.241 51.067v615.382q0 29.827-21.241 51.067-21.24 21.241-51.067 21.241H252.309Z"/></svg>

<svg xmlns="http://www.w3.org/2000/svg" height="24" viewBox="0 -960 960 960" width="24"><path d="M320-684.62q14.69 0 25.04-10.34 10.34-10.35 10.34-25.04t-10.34-25.04q-10.35-10.34-25.04-10.34t-25.04 10.34q-10.34 10.35-10.34 25.04t10.34 25.04q10.35 10.34 25.04 10.34Zm120 0q14.69 0 25.04-10.34 10.34-10.35 10.34-25.04t-10.34-25.04q-10.35-10.34-25.04-10.34t-25.04 10.34q-10.34 10.35-10.34 25.04t10.34 25.04q10.35 10.34 25.04 10.34ZM479.98-250q58.79 0 100.4-40.1Q622-330.21 622-388.03q0-27.05-9.23-52.62-9.23-25.58-28.12-44.47l-79.34-79.34q-10.85-10.85-25.31-10.85-14.46 0-25.31 10.85l-75.77 75.77q-20.38 20.5-31.15 46.6T338-388.02q2 57.79 43.06 97.9Q422.12-250 479.98-250Zm-.03-56.38q-34.18 0-58.07-23.7Q398-353.77 398-388q0-16.51 5.69-31.37t17.85-27.02L480-504.85l59.39 59.39q11.38 11.38 17 26.54Q562-403.77 562-388q0 34.23-23.93 57.92-23.93 23.7-58.12 23.7ZM252.31-100q-29.83 0-51.07-21.24Q180-142.48 180-172.31v-615.38q0-29.83 21.24-51.07Q222.48-860 252.31-860h455.38q29.83 0 51.07 21.24Q780-817.52 780-787.69v615.38q0 29.83-21.24 51.07Q737.52-100 707.69-100H252.31Z"/></svg>
